Icons/com_distilledmedia_adverts.svg

<svg viewBox="0 0 48 48" xmlns:xlink="http://www.w3.org/1999/xlink">
 <defs>
  <linearGradient id="0">
   <stop stop-opacity="0"/>
   <stop offset="1"/>
  </linearGradient>
  <linearGradient xlink:href="#0" id="1" gradientUnits="userSpaceOnUse" gradientTransform="translate(4e-7,-48)" y1="47" x2="0" y2="1"/>
  <clipPath id="2">
   <g transform="translate(0,-1004.3622)">
    <rect rx="4" y="1005.36" x="1" height="46" width="46" fill="#1890d0"/>
   </g>
  </clipPath>
  <clipPath id="3">
   <g transform="translate(0,-1004.3622)">
    <rect rx="4" y="1005.36" x="1" height="46" width="46" fill="#1890d0"/>
   </g>
  </clipPath>
 </defs>
 <g>
  <g transform="translate(0,-1004.3622)">
   <path d="m 5,1006.3622 c -2.216,0 -4,1.784 -4,4 l 0,37.25 c 0,2.216 1.784,4 4,4 l 38,0 c 2.216,0 4,-1.784 4,-4 l 0,-37.25 c 0,-2.216 -1.784,-4 -4,-4 l -38,0 z m -4,41.5 0,0.5 c 0,2.216 1.784,4 4,4 l 38,0 c 2.216,0 4,-1.784 4,-4 l 0,-0.5 c 0,2.216 -1.784,4 -4,4 l -38,0 c -2.216,0 -4,-1.784 -4,-4 z" opacity="0.02"/>
   <path d="m 1,1047.6122 0,0.25 c 0,2.216 1.784,4 4,4 l 38,0 c 2.216,0 4,-1.784 4,-4 l 0,-0.25 c 0,2.216 -1.784,4 -4,4 l -38,0 c -2.216,0 -4,-1.784 -4,-4 z" opacity="0.05"/>
   <rect width="46" height="46" x="1" y="1005.61" rx="4" opacity="0.1"/>
  </g>
 </g>
 <g>
  <g transform="translate(0,-1004.3622)">
   <rect rx="4" y="1005.36" x="1" height="46" width="46" fill="#ed8a35"/>
  </g>
 </g>
 <g>
  <rect transform="scale(1,-1)" width="46" height="46" x="1" y="-46.998" rx="4" opacity="0.1" fill="url(#1)"/>
 </g>
 <g>
  <g clip-path="url(#2)">
   <g opacity="0.1">
    <g>
     <path d="M 20 11 C 19 11 19 11 18.601562 12 L 11 35 L 19 35 L 22 27 L 26 27 L 29 35 L 37 35 L 29.398438 12 C 29 11 29 11 28 11 Z M 21 16 C 22.65625 16 24 17.789062 24 20 C 24 22.210938 22.65625 24 21 24 C 19.34375 24 18 22.210938 18 20 C 18 17.789062 19.34375 16 21 16 Z M 28 18 C 29.105469 18 30 18.894531 30 20 C 30 21.105469 29.105469 22 28 22 C 26.894531 22 26 21.105469 26 20 C 26 18.894531 26.894531 18 28 18 Z M 28 18 "/>
    </g>
   </g>
  </g>
 </g>
 <g>
  <g clip-path="url(#3)">
   <g transform="translate(0,-1)">
    <g>
     <path d="M 20 11 C 19 11 19 11 18.601562 12 L 11 35 L 19 35 L 22 27 L 26 27 L 29 35 L 37 35 L 29.398438 12 C 29 11 29 11 28 11 Z M 21 16 C 22.65625 16 24 17.789062 24 20 C 24 22.210938 22.65625 24 21 24 C 19.34375 24 18 22.210938 18 20 C 18 17.789062 19.34375 16 21 16 Z M 28 18 C 29.105469 18 30 18.894531 30 20 C 30 21.105469 29.105469 22 28 22 C 26.894531 22 26 21.105469 26 20 C 26 18.894531 26.894531 18 28 18 Z M 28 18 " fill="#f9f9f9"/>
    </g>
   </g>
  </g>
 </g>
 <g>
  <g transform="translate(0,-1004.3622)">
   <path d="m 1,1043.3622 0,4 c 0,2.216 1.784,4 4,4 l 38,0 c 2.216,0 4,-1.784 4,-4 l 0,-4 c 0,2.216 -1.784,4 -4,4 l -38,0 c -2.216,0 -4,-1.784 -4,-4 z" opacity="0.1"/>
  </g>
 </g>
</svg>

<svg viewBox="0 0 48 48"><defs><linearGradient id="linearGradient3764" x1="1" x2="47" gradientUnits="userSpaceOnUse" gradientTransform="translate(-48.000001,0.00221467)"><stop stop-color="#eb8123" stop-opacity="1"/><stop offset="1" stop-color="#ed8a35" stop-opacity="1"/></linearGradient><clipPath id="clipPath-788121021"><g transform="translate(0,-1004.3622)"><rect rx="4" y="1005.36" x="1" height="46" width="46" fill="#1890d0"/></g></clipPath><clipPath id="clipPath-801715398"><g transform="translate(0,-1004.3622)"><rect rx="4" y="1005.36" x="1" height="46" width="46" fill="#1890d0"/></g></clipPath></defs><g><path d="m 1 43 l 0 0.25 c 0 2.216 1.784 4 4 4 l 38 0 c 2.216 0 4 -1.784 4 -4 l 0 -0.25 c 0 2.216 -1.784 4 -4 4 l -38 0 c -2.216 0 -4 -1.784 -4 -4 z m 0 0.5 l 0 0.5 c 0 2.216 1.784 4 4 4 l 38 0 c 2.216 0 4 -1.784 4 -4 l 0 -0.5 c 0 2.216 -1.784 4 -4 4 l -38 0 c -2.216 0 -4 -1.784 -4 -4 z" opacity="0.02"/><path d="m 1 43.25 l 0 0.25 c 0 2.216 1.784 4 4 4 l 38 0 c 2.216 0 4 -1.784 4 -4 l 0 -0.25 c 0 2.216 -1.784 4 -4 4 l -38 0 c -2.216 0 -4 -1.784 -4 -4 z" opacity="0.05"/><path d="m 1 43 l 0 0.25 c 0 2.216 1.784 4 4 4 l 38 0 c 2.216 0 4 -1.784 4 -4 l 0 -0.25 c 0 2.216 -1.784 4 -4 4 l -38 0 c -2.216 0 -4 -1.784 -4 -4 z" opacity="0.1"/></g><g><rect width="46" height="46" x="-47" y="1" rx="4" transform="matrix(0,-1,1,0,0,0)" fill="url(#linearGradient3764)" fill-opacity="1"/></g><g><g clip-path="url(#clipPath-788121021)"><g opacity="0.1"><!-- color: #ed8a35 --><g><path d="m 20 11 c -1 0 -1 0 -1.398 1 l -7.602 23 l 8 0 l 3 -8 l 4 0 l 3 8 l 8 0 l -7.602 -23 c -0.398 -1 -0.398 -1 -1.398 -1 m -7 5 c 1.656 0 3 1.789 3 4 c 0 2.211 -1.344 4 -3 4 c -1.656 0 -3 -1.789 -3 -4 c 0 -2.211 1.344 -4 3 -4 m 7 2 c 1.105 0 2 0.895 2 2 c 0 1.105 -0.895 2 -2 2 c -1.105 0 -2 -0.895 -2 -2 c 0 -1.105 0.895 -2 2 -2 m 0 0" fill="#000"/></g></g></g></g><g><g clip-path="url(#clipPath-801715398)"><g transform="translate(0,-1)"><!-- color: #ed8a35 --><g><path d="m 20 11 c -1 0 -1 0 -1.398 1 l -7.602 23 l 8 0 l 3 -8 l 4 0 l 3 8 l 8 0 l -7.602 -23 c -0.398 -1 -0.398 -1 -1.398 -1 m -7 5 c 1.656 0 3 1.789 3 4 c 0 2.211 -1.344 4 -3 4 c -1.656 0 -3 -1.789 -3 -4 c 0 -2.211 1.344 -4 3 -4 m 7 2 c 1.105 0 2 0.895 2 2 c 0 1.105 -0.895 2 -2 2 c -1.105 0 -2 -0.895 -2 -2 c 0 -1.105 0.895 -2 2 -2 m 0 0" fill="#f9f9f9"/></g></g></g></g><g><g transform="translate(0,-1004.3622)"><path d="m 1 1043.36 0 4 c 0 2.216 1.784 4 4 4 l 38 0 c 2.216 0 4 -1.784 4 -4 l 0 -4 c 0 2.216 -1.784 4 -4 4 l -38 0 c -2.216 0 -4 -1.784 -4 -4 z" opacity="0.1"/></g></g></svg>
